picto/lift-framed.svg

<svg class="color-immutable" width="30" height="30" viewBox="0 0 30 30" fill="none" xmlns="http://www.w3.org/2000/svg"><path d="M29.9999 0H0V29.9999H29.9999V0Z" fill="#2D327D"/><path d="M25.4999 2.99999C26.3249 2.99999 26.9999 3.67499 26.9999 4.49999V25.4999C26.9999 26.3249 26.3249 26.9999 25.4999 26.9999H4.49999C3.67499 26.9999 2.99999 26.3249 2.99999 25.4999V4.49999C2.99999 3.67499 3.67499 2.99999 4.49999 2.99999H25.4999ZM25.4999 2.62499H4.49999C3.46612 2.62499 2.62499 3.46612 2.62499 4.49999V25.4999C2.62499 26.5338 3.46612 27.3749 4.49999 27.3749H25.4999C26.5338 27.3749 27.3749 26.5338 27.3749 25.4999V4.49999C27.3749 3.46612 26.5338 2.62499 25.4999 2.62499Z" fill="white"/><path d="M15.2316 8.6246V6.39613L16.1553 7.40398V6.72673L15.0002 5.57151L13.8449 6.72673V7.40398L14.7686 6.39613V8.6246H15.2316Z" fill="white"/><path d="M14.7686 21.3745V23.6031L13.8449 22.5953V23.2727L15.0002 24.4279L16.1553 23.2727V22.5953L15.2316 23.6031V21.3745H14.7686Z" fill="white"/><path d="M20.9249 9.07497H9.07493V20.9249H20.9249V9.07497ZM20.1752 20.1746H9.825V9.82475H20.1752V20.1746Z" fill="white"/><path d="M21.7499 5.99998H23.9999V23.9999H21.7499V5.99998Z" fill="white"/><path d="M5.99998 5.99998H8.24998V23.9999H5.99998V5.99998Z" fill="white"/><path d="M13.334 12.0146C13.7654 12.0146 14.1154 11.6645 14.1154 11.2335C14.1154 10.802 13.7653 10.4522 13.334 10.4522C12.9028 10.4522 12.5528 10.802 12.5528 11.2335C12.5528 11.6645 12.9028 12.0146 13.334 12.0146Z" fill="white"/><path d="M11.8752 16.0058C12.0369 16.0058 12.1682 15.8745 12.1682 15.7131L12.1681 13.467H12.3634V19.4842C12.3634 19.6997 12.5385 19.8747 12.7541 19.8747C12.9697 19.8747 13.1448 19.6998 13.1448 19.4842L13.1446 16.0058H13.4377V19.4842C13.4377 19.6997 13.6127 19.8747 13.8283 19.8747C14.044 19.8747 14.219 19.6998 14.219 19.4842V13.467H14.4142V15.7131C14.4142 15.8745 14.5455 16.0058 14.7073 16.0058C14.869 16.0058 15.0003 15.8745 15.0003 15.7131V13.0762C15.0003 12.645 14.6503 12.2949 14.2191 12.2949H12.3635C11.9323 12.2949 11.5822 12.645 11.5822 13.0762V15.7131C11.5821 15.8745 11.7134 16.0058 11.8752 16.0058Z" fill="white"/></svg>

<svg class="color-immutable" width="30" height="30" viewBox="0 0 30 30" fill="none" xmlns="http://www.w3.org/2000/svg"><path d="M30 0H0v30h30V0Z" fill="#2D327D"/><path d="M25.5 3c.825 0 1.5.675 1.5 1.5v21c0 .825-.675 1.5-1.5 1.5h-21c-.825 0-1.5-.675-1.5-1.5v-21C3 3.675 3.675 3 4.5 3h21Zm0-.375h-21A1.877 1.877 0 0 0 2.625 4.5v21c0 1.034.841 1.875 1.875 1.875h21a1.877 1.877 0 0 0 1.875-1.875v-21A1.877 1.877 0 0 0 25.5 2.625Z" fill="#fff"/><path d="M15.232 8.625V6.396l.923 1.008v-.677L15 5.572l-1.155 1.155v.677l.924-1.008v2.229h.463ZM14.769 21.375v2.228l-.924-1.008v.678L15 24.428l1.155-1.155v-.678l-.923 1.008v-2.229h-.463ZM20.925 9.075H9.075v11.85h11.85V9.075Zm-.75 11.1H9.825V9.825h10.35v10.35ZM21.75 6H24v18h-2.25V6ZM6 6h2.25v18H6V6Z" fill="#fff"/><path d="M13.334 12.015a.782.782 0 1 0 0-1.564.782.782 0 0 0 0 1.564ZM11.875 16.006a.293.293 0 0 0 .293-.293v-2.246h.195v6.017a.39.39 0 0 0 .782 0v-3.478h.293v3.478a.39.39 0 0 0 .781 0v-6.017h.195v2.246a.293.293 0 0 0 .586 0v-2.637a.782.782 0 0 0-.78-.781h-1.857a.782.782 0 0 0-.78.781v2.637c0 .162.13.293.292.293Z" fill="#fff"/></svg>
